img/vk.svg

<svg width="18" height="9" viewBox="0 0 18 9" fill="none" xmlns="http://www.w3.org/2000/svg">
<g clip-path="url(#clip0_1_114)">
<path d="M17.905 8.12802C17.8867 8.09255 17.8663 8.05816 17.844 8.02502C17.531 7.53202 16.934 6.92702 16.054 6.21002L16.034 6.19402L16.026 6.18602L16.016 6.17702H16.006C15.606 5.84302 15.354 5.61902 15.248 5.50402C15.054 5.28402 15.01 5.06402 15.116 4.83802C15.191 4.66802 15.473 4.31002 15.96 3.76302C16.216 3.47302 16.419 3.24002 16.569 3.06502C17.649 1.80502 18.119 1.00002 17.975 0.650023L17.919 0.568023C17.881 0.518023 17.785 0.474023 17.629 0.432023C17.4318 0.389365 17.2286 0.38259 17.029 0.412023L14.329 0.428023C14.2672 0.414482 14.2031 0.415854 14.142 0.432023L14.02 0.457023L13.973 0.477023L13.936 0.502023C13.897 0.524986 13.8622 0.554404 13.833 0.589023C13.7944 0.631493 13.7627 0.679744 13.739 0.732023C13.4561 1.37458 13.1206 1.99268 12.736 2.58002C12.506 2.92002 12.293 3.21402 12.099 3.46302C11.905 3.71302 11.743 3.89602 11.612 4.01302C11.48 4.13102 11.362 4.22502 11.256 4.29702C11.149 4.36802 11.068 4.39802 11.012 4.38702C10.9586 4.37659 10.9052 4.36559 10.852 4.35402C10.7661 4.3059 10.6938 4.23673 10.642 4.15302C10.5842 4.05499 10.5474 3.94602 10.534 3.83302C10.5167 3.72271 10.5053 3.61155 10.5 3.50002C10.4974 3.36867 10.4991 3.23727 10.505 3.10602C10.511 2.93602 10.515 2.82102 10.515 2.76102C10.515 2.55302 10.519 2.32702 10.528 2.08302C10.538 1.84002 10.545 1.64602 10.552 1.50402C10.558 1.36202 10.561 1.21102 10.561 1.05202C10.561 0.894023 10.55 0.769023 10.528 0.679023C10.506 0.587741 10.4731 0.49944 10.43 0.416023C10.3873 0.332495 10.3204 0.263823 10.238 0.219023C10.1391 0.167289 10.0334 0.129913 9.924 0.108023C9.50674 0.0343091 9.08371 -0.00183567 8.66 2.28458e-05C7.498 -0.00997715 6.75 0.0550228 6.42 0.197023C6.289 0.257023 6.17 0.340023 6.064 0.444023C5.951 0.564023 5.936 0.630023 6.017 0.641023C6.392 0.690023 6.657 0.808023 6.813 0.994023L6.87 1.09202C6.913 1.16402 6.957 1.29002 7 1.47002C7.045 1.65102 7.073 1.85002 7.085 2.07002C7.116 2.47002 7.116 2.81202 7.085 3.09602C7.054 3.38102 7.025 3.60302 6.996 3.76202C6.97604 3.89687 6.93344 4.02737 6.87 4.14802C6.83641 4.21049 6.79866 4.27062 6.757 4.32802C6.74429 4.34475 6.7283 4.35871 6.71 4.36902C6.62852 4.39671 6.54306 4.4109 6.457 4.41102C6.34254 4.40145 6.23274 4.3614 6.139 4.29502C5.99719 4.20516 5.86631 4.09911 5.749 3.97902C5.58212 3.8048 5.43024 3.6168 5.295 3.41702C5.10508 3.1418 4.92984 2.85674 4.77 2.56302L4.62 2.32402C4.48763 2.10356 4.3596 1.88052 4.236 1.65502C4.08163 1.37741 3.93818 1.09386 3.806 0.805023C3.76069 0.695468 3.68149 0.603301 3.58 0.542023L3.533 0.518023C3.48606 0.488624 3.43568 0.465114 3.383 0.448023C3.31329 0.423208 3.24126 0.405453 3.168 0.395023L0.6 0.412023C0.338 0.412023 0.16 0.464023 0.0659998 0.568023L0.0279998 0.617023C0.00657699 0.657204 -0.00312503 0.702595 -1.96917e-07 0.748023C-1.96917e-07 0.808023 0.0189998 0.883023 0.0559998 0.970023C0.431 1.74202 0.839 2.48702 1.279 3.20402C1.719 3.92102 2.102 4.49902 2.427 4.93702C2.752 5.37502 3.083 5.78802 3.421 6.17702C3.758 6.56602 3.981 6.81502 4.091 6.92402C4.201 7.03402 4.286 7.11602 4.348 7.17102L4.583 7.36802C4.733 7.49902 4.953 7.65702 5.243 7.84002C5.534 8.02402 5.856 8.20402 6.209 8.38202C6.60157 8.57393 7.01497 8.7199 7.441 8.81702C7.91 8.93002 8.366 8.97502 8.81 8.95302H9.887C10.106 8.93702 10.272 8.87602 10.384 8.77302L10.421 8.73102C10.4525 8.68456 10.4762 8.6332 10.491 8.57902C10.5136 8.50618 10.5247 8.43028 10.524 8.35402C10.5156 8.13991 10.5361 7.92564 10.585 7.71702C10.632 7.52802 10.685 7.38602 10.745 7.29002C10.7997 7.19989 10.8674 7.11835 10.946 7.04802C10.9941 7.00149 11.0479 6.96117 11.106 6.92802C11.1301 6.91722 11.1548 6.90787 11.18 6.90002C11.33 6.85602 11.507 6.89902 11.71 7.02702C11.913 7.15702 12.104 7.31502 12.282 7.50402C12.46 7.69302 12.674 7.90402 12.924 8.14002C13.174 8.37602 13.392 8.55002 13.58 8.66602L13.767 8.76502C13.892 8.83002 14.055 8.89102 14.255 8.94502C14.455 9.00002 14.629 9.01402 14.779 8.98602L17.179 8.95402C17.416 8.95402 17.6 8.91902 17.731 8.85102C17.863 8.78202 17.941 8.70702 17.966 8.62502C17.991 8.53353 17.9924 8.43719 17.97 8.34502C17.9572 8.27032 17.9354 8.19745 17.905 8.12802Z" fill="#8b008b"/>
</g>
<defs>
<clipPath id="clip0_1_114">
<rect width="18" height="9" fill="white"/>
</clipPath>
</defs>
</svg>

<svg width="18" height="9" fill="none" xmlns="http://www.w3.org/2000/svg"><g clip-path="url(#clip0_1_114)"><path d="M17.905 8.128a1.033 1.033 0 00-.061-.103c-.313-.493-.91-1.098-1.79-1.815l-.02-.016-.008-.008-.01-.009h-.01c-.4-.334-.652-.558-.758-.673-.194-.22-.238-.44-.132-.666.075-.17.357-.528.844-1.075.256-.29.459-.523.609-.698C17.649 1.805 18.119 1 17.975.65l-.056-.082c-.038-.05-.134-.094-.29-.136-.197-.043-.4-.05-.6-.02l-2.7.016a.398.398 0 00-.187.004l-.122.025-.047.02-.037.025a.55.55 0 00-.197.23c-.283.643-.618 1.26-1.003 1.848-.23.34-.443.634-.637.883-.194.25-.356.433-.487.55-.132.118-.25.212-.356.284-.107.071-.188.101-.244.09a7.69 7.69 0 01-.16-.033.58.58 0 01-.21-.201.82.82 0 01-.108-.32 3.099 3.099 0 01-.029-.727c.006-.17.01-.285.01-.345 0-.208.004-.434.013-.678.01-.243.017-.437.024-.579.006-.142.009-.293.009-.452 0-.158-.011-.283-.033-.373a1.17 1.17 0 00-.098-.263.465.465 0 00-.192-.197 1.175 1.175 0 00-.314-.111A7.087 7.087 0 008.66 0C7.498-.01 6.75.055 6.42.197c-.131.06-.25.143-.356.247-.113.12-.128.186-.047.197.375.049.64.167.796.353l.057.098c.043.072.087.198.13.378.045.181.073.38.085.6.031.4.031.742 0 1.026-.031.285-.06.507-.089.666a1.21 1.21 0 01-.239.566.154.154 0 01-.047.041.79.79 0 01-.253.042.643.643 0 01-.318-.116 2.166 2.166 0 01-.39-.316 4.285 4.285 0 01-.454-.562 9.492 9.492 0 01-.525-.854l-.15-.239a19.61 19.61 0 01-.384-.669 12.167 12.167 0 01-.43-.85.555.555 0 00-.226-.263L3.533.518a.675.675 0 00-.15-.07 1.106 1.106 0 00-.215-.053L.6.412C.338.412.16.464.066.568L.028.617A.243.243 0 000 .748c0 .06.019.135.056.222.375.772.783 1.517 1.223 2.234.44.717.823 1.295 1.148 1.733.325.438.656.851.994 1.24.337.389.56.638.67.747.11.11.195.192.257.247l.235.197c.15.131.37.289.66.472.291.184.613.364.966.542a5.68 5.68 0 001.232.435c.469.113.925.158 1.369.136h1.077c.219-.016.385-.077.497-.18l.037-.042a.51.51 0 00.07-.152.736.736 0 00.033-.225 2.382 2.382 0 01.061-.637c.047-.189.1-.331.16-.427a1.069 1.069 0 01.361-.362.663.663 0 01.074-.028c.15-.044.327-.001.53.127.203.13.394.288.572.477.178.189.392.4.642.636s.468.41.656.526l.187.099c.125.065.288.126.488.18.2.055.374.069.524.041l2.4-.032c.237 0 .421-.035.552-.103.132-.069.21-.144.235-.226a.56.56 0 00.004-.28.934.934 0 00-.065-.217z" fill="#8b008b"/></g><defs><clipPath id="clip0_1_114"><path fill="#fff" d="M0 0h18v9H0z"/></clipPath></defs></svg>
